X:1
T:Brudemarsch \#2
L:1/4
M:2/4
I:linebreak $
K:D
V:1 treble 
V:1
 d d/d/ B d | c3 B/c/ | d B B B/c/ | B A A2 :| d d e f | g3/2 f/ f e/d/ | c d e f | %7
 g3/2 f/ f e/d/ | c A A/B/ c |$ d d A A/B/ | A d e f | g3/2 f/ f e/d/ | c d e f | g3/2 f/ f e/d/ | %14
 c A A/B/ c!D.C.! :| d d d2 |] %16
